!!!COM: Claude Goudimel
!!!OMD: Psalm 89: Du Seigneur les bontez, sans fin
**kern	**kern	**kern	**kern
*part4	*part3	*part2	*part1
*staff4	*staff3	*staff2	*staff1
*clefF4	*clefGv2	*clefG2	*clefG2
*k[f#]	*k[f#]	*k[f#]	*k[f#]
!!LO:TX:omd:t=
*M4/4	*M4/4	*M4/4	*M4/4
=1	=1	=1	=1
2GG	2B	2d	2g
4AA	4A	4c	4e
4BB	4F#	4B	4d
=2	=2	=2	=2
4C	4E	4e	4g
4AA	4E	4c	4a
2GG	2G	2d	2b
=3	=3	=3	=3
2GG	2d	2g	2b
4GG	4B	4b	4dd
4AA	4e	[4a	4cc
=4	=4	=4	=4
2BB	2d	8a/L]	2b
.	.	8g/J	.
.	.	2g	.
2D	2d	.	2a
.	.	4f#	.
=5	=5	=5	=5
2GG	2d	2g	2g
2r	2r	2r	2r
=6	=6	=6	=6
2GG	2B	2d	2g
4AA	4A	4c	4e
4BB	4F#	4B	4d
=7	=7	=7	=7
4C	4E	4e	4g
4AA	4E	4c	4a
2GG	2G	2d	2b
=8	=8	=8	=8
2GG	2d	2g	2b
4GG	4B	4b	4dd
4AA	4e	[4a	4cc
=9	=9	=9	=9
2BB	2d	8a/L]	2b
.	.	8g/J	.
.	.	2g	.
2D	2d	.	2a
.	.	4f#	.
=10	=10	=10	=10
2GG	2d	2g	2g
2r	2r	2r	2r
=11	=11	=11	=11
2G	2d	2g	2b
4G	4d	4g	4b
4D	4d	4f#	4a
=12	=12	=12	=12
4E	4B	4e	4g
4AA	4e	4a	4cc
2BB	2d	2f#	2b
=13	=13	=13	=13
2E	2B	2e	2g
4D	4d	4f#	4a
4D	4A	4d	4f#
=14	=14	=14	=14
4C	4c	4e	4g
4D	4A	2d	4f#
2AA	2A	.	2e
.	.	4c#X	.
=15	=15	=15	=15
2D	2A	2d	2d
2r	2r	2r	2r
=16	=16	=16	=16
2D	2F#	2A	2d
4C	4G	4c	4e
4E	4G	4B	4g
=17	=17	=17	=17
4D	4A	4d	4g
4D	4A	4d	4f#
2GG	2B	2d	2g
=18	=18	=18	=18
2GG	2G	2B	2d
4GG	4B	4d	4g
4D	4d	4f#	4a
=19	=19	=19	=19
4BB	4d	4f#	4b
4C	4c	4e	4g
2C	2e	2g	2cc
=20	=20	=20	=20
2GG	2d	2g	2b
2r	2r	2r	2r
=21	=21	=21	=21
2GG	2B	2g	2dd
4C	4G	4e	4cc
4GG	4d	4g	4b
=22	=22	=22	=22
4D	4d	4g	4a
4D	4d	4f#	4a
2E	2B	2g	2g
=23	=23	=23	=23
2C	2e	2g	2cc
4GG	4d	4g	4b
4AA	4c	4f#	4a
=24	=24	=24	=24
4C	4c	4e	4g
4D	4A	2d	4f#
2AA	2A	.	2e
.	.	4c#X	.
=25	=25	=25	=25
2D	2A	2d	2d
2r	2r	2r	2r
=26	=26	=26	=26
2D	2F#	2d	2a
4GG	4G	4d	4b
4D	4F#	4d	[4a
=27	=27	=27	=27
2E	2G	2B	4a]
.	.	.	2g
2D	2A	2d	.
.	.	.	4f#
=28	=28	=28	=28
2GG	2B	2d	2g
2D	2d	2f#	2a
=29	=29	=29	=29
4G	4d	4g	4b
4G	4B	4b	4dd
4C	4e	4a	4cc
4GG	4d	[4g	4b
=30	=30	=30	=30
2D	2d	4g]	2a
.	.	4f#	.
[2GG	[2d	[2g	[2g
=31	=31	=31	=31
2GG]	2d]	2g]	2g]
2ryy	2ryy	2ryy	2ryy
==	==	==	==
*-	*-	*-	*-
!!!software: music21 v.9.7.1
!!!software: music21 v.8.3.0
!!!RDF**kern: > = above
!!!RDF**kern: < = below
